X:2
T:Allemande in D minor
C:Bach, J.S.
M:4/4
L:1/16
Q:1/4=76
K:Dmin
|:A3B cded cBAG|FGAB cBAG FEDE|FGAB cBAG FEDC|D8 z8|
A3B cded cBAG|FGAB cBAG FEDE|GAGF EDCE DCBA|A8 z8:|

